X:0
T:Irregulous Devil
M:C|
C:© Paul Gitlitz 2010
K:G
"G"DG2A BAGB|"D"AD- D2D4|ADBD cDdD|"G"BAG2 "D"A4|!
"G"DG2A BAGB|"D"Ad- d2d4|ADBD cDBD|AGF2 "G"G4:|!
|:"G"d3B cBAG|"D"AD-D2D4|"D"ADBD cDdD|"G"BAG2 "D"A4|!
"G"Ad2B cBAG|"D"Ad-d2d4|"D"ADBD cDBD|"D"AGF2 "G"G4:|!
